X:429
T: Shier yue changgong ge
N: C1464
O: China,Hunan, Lingxian
S: I, 532]
R: Xiaodiao. Changgong suku]
M: 2/4
L: 1/16
K: F
c3AA2c2 | c2A2A2A2 | d2f6 | d2f2f2d2 | c8 |
c3AA2c2 | A2c2A2A2 | d2f6 | d2f2f2d2 | c8 |
d2d2f4- | f6dc | c2c6 | d2f2f2d2 | c8

@@@ Tune index: 6430
